X:1
T:POLICY PETE.
T:POLICY PETE.
T:W. P. JOHNSTON.
T:Copyright 1905 by F. B. Haviland Pub.Co. In.
T:Copyright 1905 by F. B. Haviland Pub.Co. In.
T:Copyright 1905 by F. B. Haviland Pub.Co. In.
T:Copyright 1905 by F. B. Haviland Pub.Co. In.
C:W. P. JOHNSTON.
Z:Copyright 1905 by F. B. Haviland Pub.Co. In.
%%score { ( 1 4 ) | ( 2 3 ) }
L:1/8
Q:1/4=100
M:2/4
K:C
V:1 treble nm="Piano" snm="Pno."
V:4 treble 
V:2 treble 
V:3 treble 
V:1
"^March tempo"!f! (3g/a/b/ | c'/>b/c'/>a/ (g/e)^d/ | e/>^d/e/>=d/ (c/A)_A/ | %3
 (G/^G/!<(!A/^A/ B/_B/=A/_A/)!<)! | G z !>![GBdg] |!mf! (3c/d/^d/ |: e/[cg]e/ [cg]/e/d/c/ | %7
 e/[cg]e/ [cg]/e/d/c/ | A !>![Ac]2!<(! [_Acd] | [Gce]2- [Gce]!<)!(3c/d/^d/ | e/[cg]e/ [cg]/e/d/c/ | %11
 e/[cg]e/ [cg]/e/d/c/ | A !>![^Fcd]2 [Fce] | [=FBd]2- [FBd](3c/d/^d/ | e/[cg]e/ [cg]/e/d/c/ | %15
 e/[cg]e/ [cg]/e/d/c/ |!<(! A !>![Ac]2 !>![Ad]!<)! |!f!!<(! [^Ge]2- [Ge](3=g/a/b/!<)! | %18
!ff! c'/>b/c'/>a/ (g/e)^d/ | e/>^d/e/>=d/ (c/A)_A/ |1 (G/^G/A/^A/!<(! B/_B/=A/_A/) | %21
 G z!<)!!f! !>![GBdg](3c/d/^d/ :|2 (G/^G/A/^A/ B/=G/=A/B/) | c!f! (!>![Gce]!>![_Beg]!>![Adf]) |: %24
!mf! [FBe]/dg/ [FBe]d/g/ | [FBe]/dg/ [FBe]d/g/ | [EGd]/ce/ !>!A2- | A!<(!cBA!<)! | %28
!f! [FB]/AB/ !>!A2- | AGAB |!<(! [Ec]e/-[Geg]/-!<)!!ff! [Geg]2- | %31
 [Geg](!>![Gce]!>![_Beg]!>![Adf]) |!f! [FBe]/dg/ [FBe]d/g/ | [FBe]/dg/ [FBe]d/g/ | %34
 [EGd]/ce/ !>!A2- | A x [A^cg][Gce] | [^F=ce]/!<(!de/ [Fcd]2-!<)! |!ff! [^Fcd][=FG] [FA][FBe] |1 %38
 [Ec]G/[^Fe]/-!>(! [Fe]/A/[=Fd]/G/ | [Ec]!>)!!ff! (!>![Gce]!>![_Beg]!>![Adf]) :|2 %40
 [Ec]/G[^Fe]/-!<(! [Fe]/A/[Fd]/A/ | [=FBd]2-!<)! [FBd](3c/d/^d/ || e/[cg]e/ [cg]/e/d/c/ | %43
 e/[cg]e/ [cg]/e/d/c/ | A !>![Ac]2!<(! [_Acd] | [Gce]2- [Gce]!<)!(3c/d/^d/ | e/[cg]e/ [cg]/e/d/c/ | %47
 e/[cg]e/ [cg]/e/d/c/ | A !>![^Fcd]2!<(! [Fce] | [=FBd]2-!<)! [FBd](3c/d/^d/ | %50
 e/[cg]e/ [cg]/e/d/c/ | e/[cg]e/ [cg]/e/d/c/ | A !>![Ac]2!<(! !>![Ad] | %53
 [^Ge]2-!<)! [Ge]!ff!(3=g/a/b/ | (c'/>b/c'/>a/) (g/e)^d/ | e/>^d/e/>=d/ (c/A)_A/ | %56
 (G/^G/A/^A/ B/=G/=A/B/) | c ||[K:F]!mp!!ff! !>![Ac]!>![Ad]!>![A_d] |: [Ac]/[Ad][Ae]/ !>![Af]2- | %60
 [Af][ca][=B^g][ca] | [=B=g]/[B^f][Bg]/ !>![Bd]2- | [=Bd][Ba][Bg][Bf] | [_Be]/[Bd][Be]/ !>![Bd]2- | %64
 [Bd][Bf][Be][Bc] | [Ad]/[Ae][Ac]/ !>![Ad]2- | [Ad]([FA][GB][^G=B]) | [Ac]/[Ad][Ae]/ !>![Af]2- | %68
 [Af][ca][=B^g][ca] | [=B=g]/[B^f][Bg]/ !>![Bd]2- | [=Bd][Ba][Bg][Bf] | [_Be]/[Bd][Be]/ !>![Bd]2- | %72
 [Bd][Bf][Be][Bc] |1!<(! [Af]d/[=Ba]/- [Ba]/d/[_Bg]/c/!<)! |!ff! !>![Af](!>!e!>!d!>!_d) :|2 %75
!<(! [Af]d/[=Ba]/- [Ba]/d/[_Bg]/c/!<)! | [Af]!ff![cfa][_eac'][dgb] || [Bea]/gc'/ [Bea]g/c'/ | %78
 [Bea]/gc'/ [Bea]g/c'/ | [Acg]/fa/ !>!d2- | dfed | [Be]/de/ !>!d2- |!<(! dcde!<)! | %83
 [Af]a/-[cac']/-!ff! [cac']2- |!<(! [cac'](!>![cfa]!>![^dac']!>![=dgb])!<)! | %85
!ff! [Bea]/gc'/ [Bea]g/c'/ | [Bea]/gc'/ [Bea]g/c'/ | [Acg]/fa/ !>!d2- | [Ad][d^fd'] [dfc'][cfa] | %89
 [=B=fa]/ga/ [Bfg]2- | [Bfg][_Bc] [Bd][Bea] | [Af]c/!<(![=Ba]/- [Ba]/d/[_Bg]/c/!<)! | %92
 [Af] z !>![FAcf] |] %93
V:2
 (3G/A/B/ | c/>B/c/>A/ (G/E)^D/ |[K:bass] E/>^D/E/>=D/ (C/A,)_A,/ | %3
 (G,/^G,/A,/^A,/ B,/_B,/=A,/_A,/) | G, z !>![G,,G,] | z |: C,[G,CE] E,[G,C] | C,[G,CE] E,[G,C] | %8
 F,[CF] [F,,F,][F,C] | (C,/>G,/A,/>B,/ C) z | C,[G,CE] E,[G,C] | C,[G,CE] E,[G,C] | %12
 D,[A,C] [D,,D,][D,A,C] | ([G,,G,]/^G,/A,/^A,/) .B, z | C,[G,CE] E,[G,C] | C,[G,CE] E,[G,C] | %16
 (F,/>G,/A,/>B,/) C!>![F,,F,] | (!>![E,,E,]/z/4E,/<^G,/B,/4) E[K:treble] (3=G/A/B/ | %18
 c/>B/c/>A/ (G/E)^D/ |[K:bass] E/>^D/E/>=D/ (C/A,)_A,/ |1 (G,/^G,/A,/^A,/ B,/_B,/=A,/_A,/) | %21
 G, z !>![G,,G,] z :|2 G,[DF] G,[DF] | [CE](!>!C!>!^C!>!D) |: G,,[G,B,] G,,[G,B,] | %25
 G,,[G,B,] G,,[G,B,] | C,[G,C] G,,[G,C] | C,[G,C] G,,[G,C] | D,[G,B,] G,,[G,B,] | %29
 D,[G,B,] G,,[G,D] | C,[G,C] [^D,^D]/!>![E,E][C,C]/ | [G,,G,](!>!C!>!^C!>!D) | %32
 G,,[G,B,] G,,[G,B,] | G,,[G,B,] G,,[G,B,] | C,[G,C] G,,[G,C] | ^C,[G,A,E] A,,[G,A,^C] | %36
 D,[A,=C] [D,,D,]!>![^G,,^G,] | !>![A,,A,][B,,B,] [G,,G,][G,B,] |1 [C,C][G,,G,][A,,A,][B,,B,] | %39
 [C,C] (!>!C!>!^C!>!D) :|2 [C,C][G,,G,][A,,A,][D,,D,] | [G,,G,][D,,D,] [G,,,G,,] z || %42
 C,[G,CE] E,[G,C] | C,[G,CE] E,[G,C] | F,[CF] [F,,F,][F,C] | (C,/>G,/A,/>B,/ C) z | %46
 C,[G,CE] E,[G,C] | C,[G,CE] E,[G,C] | D,[A,C] [D,,D,][D,A,C] | ([G,,G,]/^G,/A,/^A,/) .B, z | %50
 C,[G,CE] E,[G,C] | C,[G,CE] E,[G,C] | (F,/>G,/A,/>B,/) C!>![F,,F,] | %53
 (!>![E,,E,]/z/4E,/<^G,/B,/4) E[K:treble] (3=G/A/B/ | (c/>B/c/>A/) (G/E)^D/ | %55
[K:bass] E/>^D/E/>=D/ (C/A,)_A,/ | G,[DF] G,[DF] | [CE] ||[K:F] !>!C!>!D!>!_D |: %59
 F,[A,CF] z !>![C,,C,] | !>![F,,F,][A,CF] [F,,F,][A,CF] | [G,,G,][G,=B,F] z !>![^C,^C] | %62
 !>![D,D][G,=B,F] [G,,G,][G,DF] | C,[_B,CE] z !>![^F,,^F,] | !>![G,,G,][B,CE] [C,,C,][B,CE] | %65
 [F,,F,][A,CF] z !>![C,,C,] | !>![F,,F,] z (ED) | F,[A,CF] z !>![C,,C,] | %68
 !>![F,,F,][A,CF] [F,,F,][A,CF] | [G,,G,][G,=B,F] z !>![^C,^C] | !>![D,D][G,=B,F] [G,,G,][G,DF] | %71
 C,[_B,CE] z !>![^F,,^F,] | !>![G,,G,][B,CE] [C,,C,][B,CE] |1 [F,,F,][C,C][D,D][E,E] | %74
 !>![F,F](!>!E!>!D!>!_D) :|2 [F,,F,][C,C][D,D][E,E] | [F,F]!>![F,,F,]!>![^F,,^F,]!>![G,,G,] || %77
 C,[B,CE] C,[B,CE] | C,[B,CE] C,[B,CE] | F,[A,CF] C,[A,CF] | F,[A,CF] C,[A,CF] | %81
 G,[B,CE] C,[B,CE] | G,[B,CE] C,[B,CE] | F,[CF] [^G,,^G,]/!>![A,,A,][F,,F,]/ | %84
 [C,,C,] (!>![F,,F,]!>![^F,,^F,]!>![G,,G,]) | C,[B,CE] C,[B,CE] | C,[B,CE] C,[B,CE] | %87
 F,[A,CF] F,[A,C] | ^F,[A,CD] D,[^F,CD] | G,[DF] [G,,G,]!>![^C,^C] | !>![D,D]!>![E,E] [C,C][CE] | %91
 [F,CF][C,C][D,D][E,E] | [F,F] z !>![F,,F,] |] %93
V:3
 x | x4 |[K:bass] x4 | x4 | x3 | x |: x2 !>!E,2 | x2 !>!E,2 | x4 | x4 | x2 !>!E,2 | x2 !>!E,2 | %12
 x4 | x4 | x2 !>!E,2 | x2 !>!E,2 | x4 | x3[K:treble] x | x4 |[K:bass] x4 |1 x4 | x4 :|2 x4 | x4 |: %24
 x4 | x4 | x4 | x4 | x4 | x4 | x4 | x4 | x4 | x4 | x4 | x4 | x4 | x4 |1 x4 | x4 :|2 x4 | x4 || %42
 x2 !>!E,2 | x2 !>!E,2 | x4 | x4 | x2 !>!E,2 | x2 !>!E,2 | x4 | x4 | x2 !>!E,2 | x2 !>!E,2 | x4 | %53
 x3[K:treble] x | x4 |[K:bass] x4 | x4 | x ||[K:F] x3 |: x4 | x4 | x4 | x4 | x4 | x4 | x4 | x4 | %67
 x4 | x4 | x4 | x4 | x4 | x4 |1 x4 | x4 :|2 x4 | x4 || x4 | x4 | x4 | x4 | x4 | x4 | x4 | x4 | x4 | %86
 x4 | x2 F,2 | ^F,2 x2 | x4 | x4 | x4 | x3 |] %93
V:4
 x | x4 | x4 | x4 | x3 | x |: x4 | x4 | x4 | x4 | x4 | x4 | x4 | x4 | x4 | x4 | x4 | x4 | x4 | %19
 x4 |1 x4 | x4 :|2 x4 | x4 |: x4 | x4 | x2 z/ E^D/ | EEEE | x2 z/ FE/ | FFFF | x4 | x4 | x4 | x4 | %34
 x2 z/ E^D/ | [EA][A^ca] x2 | x4 | x4 |1 x4 | x4 :|2 x4 | x4 || x4 | x4 | x4 | x4 | x4 | x4 | x4 | %49
 x4 | x4 | x4 | x4 | x4 | x4 | x4 | x4 | x ||[K:F] x3 |: x4 | x4 | x4 | x4 | x4 | x4 | x4 | x4 | %67
 x4 | x4 | x4 | x4 | x4 | x4 |1 x4 | x4 :|2 x4 | x4 || x4 | x4 | x2 z/ A^G/ | AAAA | x2 z/ BA/ | %82
 BBBB | x4 | x4 | x4 | x4 | x2 z/ A^G/ | x4 | x4 | x4 | x4 | x3 |] %93

